logos/zeroheight-icon.svg

<?xml version="1.0" encoding="UTF-8"?>
<svg width="256px" height="310px" viewBox="0 0 256 310" version="1.1" xmlns="http://www.w3.org/2000/svg" preserveAspectRatio="xMidYMid">
    <title>zeroheight</title>
    <defs>
        <linearGradient x1="15.7507791%" y1="100%" x2="84.2492209%" y2="0%" id="zeroheightLinearGradient-1">
            <stop stop-color="#EC407A" offset="0%"></stop>
            <stop stop-color="#FFA000" offset="100%"></stop>
        </linearGradient>
    </defs>
    <g>
        <path d="M22.6268266,0 L45.2676118,48.2407852 L0,48.2407852 L22.6268266,0 Z M0,55.8621592 L45.2676118,55.8621592 L45.2676118,271.703381 L0,271.703381 L0,55.8621592 Z M0,279.324755 L45.2676118,279.324755 L45.2676118,305.566848 L0,305.566848 L0,279.324755 Z M80.5408942,48.1151581 L111.891821,16.7921483 L256,161.011996 L111.165976,309.321701 L79.8708833,279.589967 L193.633152,161.221374 L80.5408942,48.1291167 L80.5408942,48.1151581 Z" fill="url(#zeroheightLinearGradient-1)"></path>
    </g>
</svg>

<svg preserveAspectRatio="xMidYMid" viewBox="0 0 256 310" xmlns="http://www.w3.org/2000/svg">
  <defs>
    <linearGradient id="zeroheight-icon_svg__a" x1="15.751%" x2="84.249%" y1="100%" y2="0%">
      <stop offset="0%" stop-color="#EC407A"/>
      <stop offset="100%" stop-color="#FFA000"/>
    </linearGradient>
  </defs>
  <path fill="url(#zeroheight-icon_svg__a)" d="m22.627 0 22.64 48.24H0L22.627 0ZM0 55.862h45.268v215.841H0V55.863Zm0 223.463h45.268v26.242H0v-26.242Zm80.54-231.21 31.352-31.323L256 161.012l-144.834 148.31-31.295-29.732 113.762-118.369L80.541 48.13v-.014Z"/>
</svg>
